X:373
T:Major C. M. Usher O.B.E. 
C:Joe Buchanan's Scottish Tome - Page 038.0
I:038 0
C:P.M. George S. McLennan
R:March
Z:Carl Allison
L:1/8
M:2/4
K:A
e | A>B ce | fa ec/ | de/>d/ cB/>A/| cB Be |
A>B ce | fa e>d | ce/>c/ | cA A :|
c/>d/ | e>f ea | f>e c>d | e>f ec | cB Bc/>d/ |
e>f ea | f>e cB | ce/>c/ BA | cA A :|
e | AA/>c/ e/<a/g/<a/ | fe ec/<e/ | fa/>e/ ef/>e/ | cB Be |
AA3/8c/ e/<a/g/<a/ | fe e>d | ce/>c/ BA | cA A :|
a | fa/>f/ e>f | ef/>e/ c>e | ce/>c/ BA | cB Ba |
fa/>f/ e>f | ef/>e/ cB | ce/>c/ BA | cA A :|

